X:0454
T:Harper's Fancy:
M:2/4
L:1/8
Q:1/4=132
I: || ::
Z:Jack Campin * www.campin.me.uk * 2009
K:D
 A    |FA  DA      |FA  Dd      |cd  ef      |d/c/d/e/ d
 A/G/ |FA  DA      |FA  Dd      |cd  f/e/d/c/|d2       D||
 d/e/ |f(d d)e/f/  |g(e e)f/g/  |f(d d)f     |e/d/c/B/ A
(d/e/)|f(d d)(e/f/)|g(e e)(f/g/)|fd  f/e/d/c/|d2       D:|

